Lila_HD/apps/scalable/gnome-encfs-manager.svg

<?xml version="1.0" encoding="UTF-8" standalone="no"?>
<svg
   xmlns:dc="http://purl.org/dc/elements/1.1/"
   xmlns:cc="http://creativecommons.org/ns#"
   xmlns:rdf="http://www.w3.org/1999/02/22-rdf-syntax-ns#"
   xmlns:svg="http://www.w3.org/2000/svg"
   xmlns="http://www.w3.org/2000/svg"
   xmlns:xlink="http://www.w3.org/1999/xlink"
   xmlns:sodipodi="http://sodipodi.sourceforge.net/DTD/sodipodi-0.dtd"
   xmlns:inkscape="http://www.inkscape.org/namespaces/inkscape"
   viewBox="0 0 48 48"
   version="1.1"
   id="svg39"
   sodipodi:docname="gnome-encfs-manager.svg"
   inkscape:version="0.92.2 5c3e80d, 2017-08-06">
  <metadata
     id="metadata43">
    <rdf:RDF>
      <cc:Work
         rdf:about="">
        <dc:format>image/svg+xml</dc:format>
        <dc:type
           rdf:resource="http://purl.org/dc/dcmitype/StillImage" />
      </cc:Work>
    </rdf:RDF>
  </metadata>
  <sodipodi:namedview
     pagecolor="#ffffff"
     bordercolor="#666666"
     borderopacity="1"
     objecttolerance="10"
     gridtolerance="10"
     guidetolerance="10"
     inkscape:pageopacity="0"
     inkscape:pageshadow="2"
     inkscape:window-width="1280"
     inkscape:window-height="976"
     id="namedview41"
     showgrid="false"
     inkscape:zoom="15.774059"
     inkscape:cx="24"
     inkscape:cy="24"
     inkscape:window-x="0"
     inkscape:window-y="20"
     inkscape:window-maximized="1"
     inkscape:current-layer="svg39" />
  <defs
     id="defs7">
    <linearGradient
       id="linearGradient3764"
       x1="1"
       x2="47"
       gradientUnits="userSpaceOnUse"
       gradientTransform="rotate(-90,23.999998,24)">
      <stop
         style="stop-color:#3d3d3d;stop-opacity:1"
         id="stop2" />
      <stop
         offset="1"
         style="stop-color:#474747;stop-opacity:1"
         id="stop4" />
    </linearGradient>
    <linearGradient
       inkscape:collect="always"
       xlink:href="#linearGradient6139-0"
       id="linearGradient4071"
       gradientUnits="userSpaceOnUse"
       gradientTransform="matrix(0.55126485,0,0,0.55126475,-2.460715,-1.9094496)"
       x1="6"
       y1="47.000011"
       x2="90"
       y2="47.000011" />
    <linearGradient
       id="linearGradient6139-0">
      <stop
         id="stop6141-2"
         offset="0"
         style="stop-color:#b2babc;stop-opacity:1" />
      <stop
         style="stop-color:#ffffff;stop-opacity:1;"
         offset="0.25"
         id="stop6151-0" />
      <stop
         style="stop-color:#96a1a4;stop-opacity:1"
         offset="0.5"
         id="stop6147-1" />
      <stop
         id="stop6149-4"
         offset="0.75"
         style="stop-color:#fbf9f9;stop-opacity:1;" />
      <stop
         id="stop6143-4"
         offset="1"
         style="stop-color:#b2b9bc;stop-opacity:1" />
    </linearGradient>
    <linearGradient
       gradientTransform="matrix(0.49791667,0,0,0.49791666,0.09999873,0.09999967)"
       inkscape:collect="always"
       xlink:href="#linearGradient3832-0-6-1-1"
       id="linearGradient4129"
       x1="1.5"
       y1="88.171875"
       x2="94.5"
       y2="88.171875"
       gradientUnits="userSpaceOnUse" />
    <linearGradient
       id="linearGradient3832-0-6-1-1">
      <stop
         style="stop-color:#000000;stop-opacity:1;"
         offset="0"
         id="stop3834-6-3-7-1" />
      <stop
         id="stop3872-2-4"
         offset="0.1"
         style="stop-color:#000000;stop-opacity:0.58823532;" />
      <stop
         style="stop-color:#000000;stop-opacity:0.58823532;"
         offset="0.89999998"
         id="stop3844-6-2-7-6" />
      <stop
         style="stop-color:#000000;stop-opacity:1;"
         offset="1"
         id="stop3836-5-0-2-9" />
    </linearGradient>
    <radialGradient
       inkscape:collect="always"
       xlink:href="#linearGradient3737"
       id="radialGradient7462"
       gradientUnits="userSpaceOnUse"
       gradientTransform="matrix(0.48553536,0,0,0.02449288,16.978724,40.016334)"
       cx="13.948145"
       cy="44.892841"
       fx="13.948145"
       fy="44.892841"
       r="43.199203" />
    <linearGradient
       id="linearGradient3737">
      <stop
         offset="0"
         style="stop-color:#ffffff;stop-opacity:1"
         id="stop3739" />
      <stop
         offset="1"
         style="stop-color:#ffffff;stop-opacity:0"
         id="stop3741" />
    </linearGradient>
    <radialGradient
       inkscape:collect="always"
       xlink:href="#linearGradient3737"
       id="radialGradient7464"
       gradientUnits="userSpaceOnUse"
       gradientTransform="matrix(0.44231264,0,0,0.02449288,15.806528,-44.996301)"
       cx="13.948145"
       cy="44.892841"
       fx="13.948145"
       fy="44.892841"
       r="43.199203" />
    <linearGradient
       inkscape:collect="always"
       xlink:href="#linearGradient3737"
       id="linearGradient4767"
       gradientUnits="userSpaceOnUse"
       x1="2.7713892"
       y1="-28.64156"
       x2="50.527882"
       y2="14.514202" />
    <clipPath
       id="clipPath4156-4-1"
       clipPathUnits="userSpaceOnUse">
      <path
         inkscape:connector-curvature="0"
         id="path4158-0-8"
         d="m 27.046336,-55.695463 -14.21366,13.321486 h 0.06127 l 15.653407,21.770763 10.231384,-10.546177 C 38.561832,-32.30156 27.468089,-54.819245 27.046336,-55.695463 Z M 9.6468554,-39.382809 -5.2407289,-25.32124 15.987863,-7.8059573 26.372412,-18.382966 Z m 31.4906096,12.951445 -9.741259,9.713584 8.944804,12.4580526 7.780753,-7.5550056 z m -49.8397109,4.378822 -13.7541661,12.9822847 26.2830181,13.84571 0.06127,-0.0617 -0.122531,-0.0617 L 13.598503,-5.4007374 -8.7022409,-22.052595 Z m 38.0154159,7.400825 -9.802525,9.7752596 11.579232,9.5594001 7.62759,-7.40083 -8.669108,-11.0087257 z m 20.187073,5.6739697 -7.382526,7.2158 6.187844,8.54179 5.820249,-6.13651996 z m -32.195166,6.32154 -9.5574606,9.49772 13.6622686,7.1849703 7.933918,-7.6783603 z m 23.311629,2.37443004 -7.10683,6.93826996 8.362778,6.9074403 5.360756,-5.6739699 -0.06127,-0.0925 -0.0919,0.12335 -6.463539,-8.20258036 z m -8.730374,8.54178036 -7.505057,7.3391599 10.353916,5.45811 c 1.397496,-1.32103 5.67514,-6.12292 5.850882,-6.32154 z"
         style="opacity:0.6;fill:#ffffff;fill-opacity:1;stroke:none" />
    </clipPath>
  </defs>
  <g
     id="g37"
     transform="matrix(1.154601,0,0,1.3959082,-53.10945,6.2647667)" />
  <path
     style="display:inline;opacity:0.15;fill:#000000;fill-opacity:1;fill-rule:nonzero;stroke:none;stroke-width:0.49791667"
     d="M 44.485713,0.09999967 H 3.5142818 c -1.8915097,0 -3.41428187,1.52277053 -3.41428187,3.41428433 v 40.97143 C 0.09999993,46.377228 1.6227721,47.9 3.5142818,47.9 H 44.485713 C 46.377226,47.9 47.9,46.377228 47.9,44.485714 V 3.514284 c 0,-1.8915138 -1.522774,-3.41428433 -3.414287,-3.41428433 z"
     id="path3288"
     inkscape:connector-curvature="0" />
  <path
     inkscape:connector-curvature="0"
     id="path4085"
     d="M 44.165624,0.47343717 H 3.8343706 c -1.8619555,0 -3.36093407,1.49897713 -3.36093407,3.36093553 V 44.165625 c 0,1.861959 1.49897857,3.360937 3.36093407,3.360937 H 44.165624 c 1.86196,0 3.360939,-1.498978 3.360939,-3.360937 V 3.8343727 c 0,-1.8619584 -1.498979,-3.36093553 -3.360939,-3.36093553 z"
     style="display:inline;opacity:0.15;fill:#000000;fill-opacity:1;fill-rule:nonzero;stroke:none;stroke-width:0.49791667" />
  <path
     style="display:inline;fill:url(#linearGradient4071);fill-opacity:1;fill-rule:nonzero;stroke:none;stroke-width:0.49791667"
     d="M 43.845532,0.84687467 H 4.1544633 c -1.8324046,0 -3.30758907,1.47518463 -3.30758907,3.30758773 V 43.845536 c 0,1.832405 1.47518447,3.307589 3.30758907,3.307589 H 43.845532 c 1.832405,0 3.307588,-1.475185 3.307588,-3.307589 V 4.1544624 c 0,-1.8324031 -1.475183,-3.30758773 -3.307588,-3.30758773 z"
     id="rect4251-1"
     inkscape:connector-curvature="0" />
  <path
     style="display:inline;opacity:0.98000004;fill:#f2f0f5;fill-opacity:1;fill-rule:nonzero;stroke:none;stroke-width:0.51566219"
     d="m 5.6972261,3.2802641 c -1.4222972,0 -2.551389,1.1530465 -2.551389,2.6055173 v 10.7966076 3.647723 20.111331 c 0.5463341,0.848762 1.4782393,1.416749 2.551389,1.416749 H 7.7383374 40.396118 43.2187 c 1.073151,0 1.223584,0.01811 1.769919,-0.830645 V 20.330112 16.682389 5.8857814 c 0,-1.4524708 -1.129092,-2.6055173 -2.55139,-2.6055173 z"
     id="path3400-6"
     inkscape:connector-curvature="0"
     sodipodi:nodetypes="sscccsccscccsss" />
  <path
     d="m 8.8892592,7.7774424 c -0.7196962,0 -1.4393923,0.8666295 -1.4393923,1.7367395 h -0.00288 c 0,9.8653061 0,19.7288731 0,29.6011401 H 41.989525 V 13.130359 c 0,-0.924057 -0.719697,-1.855075 -1.439393,-1.855075 h -1.433635 c -4.299464,-0.02784 -8.636353,-0.01392 -12.95453,-0.01392 L 24.722574,7.7844033 Z"
     style="fill:#000000;fill-opacity:0.24782608;stroke:none;stroke-width:1.58267462"
     id="path25"
     inkscape:connector-curvature="0" />
  <path
     inkscape:connector-curvature="0"
     id="path29"
     style="fill:#163e57;fill-opacity:1;stroke:none;stroke-width:1.58267462"
     d="M 6.0104746,7.7774408 V 32.140518 H 39.116497 V 19.958979 L 37.677105,9.5176606 H 24.722574 L 23.283182,6.037221 H 7.4498669 c -0.7196961,0 -1.4393923,0.8701099 -1.4393923,1.7402198 z" />
  <rect
     y="9.5141821"
     x="7.4469881"
     height="6.9608793"
     width="15.833315"
     style="fill:#fffdf0;fill-opacity:1;stroke:none;stroke-width:1.58267462"
     id="rect31"
     inkscape:transform-center-x="-5.8983051"
     inkscape:transform-center-y="1.220339" />
  <path
     inkscape:connector-curvature="0"
     id="path33"
     style="fill:#006ea6;fill-opacity:1;stroke:none;stroke-width:1.58267462"
     d="M 40.55589,11.379696 V 37.366398 H 6.0104746 V 13.003321 H 23.283182 l 1.439392,-3.4804397 h 14.393923 c 0.719697,0 1.439393,0.9275367 1.439393,1.8568147 z" />
  <path
     inkscape:connector-curvature="0"
     id="path4989"
     d="m 4.9920701,2.4548766 c -1.5518175,0 -2.8221742,1.2644644 -2.8221742,2.8112405 V 39.760786 c 0,1.546775 1.2703567,2.811239 2.8221742,2.811239 H 43.227979 c 1.551818,0 2.822176,-1.264464 2.822176,-2.811239 V 5.2661171 c 0,-1.5467751 -1.270358,-2.8112405 -2.822176,-2.8112405 z m 0,1.1548879 H 43.227979 c 0.940117,0 1.669028,0.7369634 1.669028,1.6563526 V 39.760786 c 0,0.91939 -0.728911,1.65635 -1.669028,1.65635 H 4.9920701 c -0.9401159,0 -1.6690276,-0.73696 -1.6690276,-1.65635 V 5.2661171 c 0,-0.9193892 0.7289117,-1.6563526 1.6690276,-1.6563526 z"
     style="color:#000000;font-style:normal;font-variant:normal;font-weight:normal;font-stretch:normal;font-size:medium;line-height:normal;font-family:Sans;-inkscape-font-specification:Sans;text-indent:0;text-align:start;text-decoration:none;text-decoration-line:none;letter-spacing:normal;word-spacing:normal;text-transform:none;writing-mode:lr-tb;direction:ltr;baseline-shift:baseline;text-anchor:start;display:inline;overflow:visible;visibility:visible;fill:#1f2224;fill-opacity:0.80869565;stroke:none;stroke-width:1.18280113;marker:none;enable-background:accumulate" />
  <path
     inkscape:connector-curvature="0"
     style="display:inline;opacity:0.65818182;fill:url(#linearGradient4129);fill-opacity:1;fill-rule:nonzero;stroke:none;stroke-width:0.49791667"
     d="m 0.84687373,40.851367 v 2.9875 c 0,1.832404 1.48185307,3.314258 3.31425767,3.314258 H 43.838865 c 1.832405,0 3.31426,-1.481854 3.31426,-3.314258 v -2.9875 c 0,1.832404 -1.481855,3.314258 -3.31426,3.314258 H 4.1611314 c -1.8324046,0 -3.31425767,-1.481854 -3.31425767,-3.314258 z"
     id="path4118" />
  <rect
     style="opacity:0.55;fill:url(#radialGradient7462);fill-opacity:1;stroke:none;stroke-width:0.49791667"
     id="rect4131"
     width="41.949482"
     height="2.1161458"
     x="2.7763009"
     y="40.057812"
     rx="0"
     ry="2.1161458" />
  <rect
     ry="2.1161458"
     rx="0"
     y="-44.954826"
     x="2.8684161"
     height="2.1161458"
     width="38.215103"
     id="rect4141"
     style="opacity:0.669;fill:url(#radialGradient7464);fill-opacity:1;stroke:none;stroke-width:0.49791667"
     transform="rotate(90)" />
  <rect
     transform="matrix(0.53239495,0,0,0.52165878,2.2386637,19.259328)"
     style="opacity:0.7;fill:url(#linearGradient4767);fill-opacity:1;stroke:none"
     id="rect4146"
     width="75.965775"
     height="69.024437"
     x="2"
     y="-30"
     rx="3.9569874"
     ry="3.9569881"
     clip-path="url(#clipPath4156-4-1)" />
  <path
     d="m 36.875167,15.32737 c -3.423003,0 -6.192997,2.892842 -6.192997,6.459614 0,1.124551 0.271605,2.16863 0.753176,3.087983 0,0 0,0.0078 0,0.01601 L 19.952774,36.882848 v 2.585054 h 2.475273 l 0.828302,-0.865038 v -1.720016 h 1.646973 l 0.8283,-0.865037 h 1.654676 l 0.820598,-0.865038 v -1.720019 l 0.828301,-0.865034 h 1.654675 v -1.728064 l 3.220747,-3.363591 c 0,0 0.0078,0 0.0155,0 0.880309,0.502927 1.881978,0.786583 2.949138,0.786583 3.423003,0 6.192998,-2.892846 6.192998,-6.467666 v -0.02426 c -0.0155,-3.566639 -2.775843,-6.435345 -6.193069,-6.435345 m 1.234748,3.442045 c 0.903428,0 1.641194,0.770488 1.646972,1.720018 0,0.959587 -0.737765,1.728063 -1.646972,1.728063 -0.918836,0 -1.654677,-0.770488 -1.654677,-1.728063 0,-0.951543 0.737767,-1.720018 1.654677,-1.720018 m 0,0"
     style="opacity:0.92;fill:#ffffff;fill-opacity:1;fill-rule:nonzero;stroke:#a1a1a1;stroke-width:0.469;stroke-opacity:1;stroke-miterlimit:4;stroke-dasharray:none"
     id="path35"
     inkscape:connector-curvature="0" />
</svg>

<?xml version="1.0" encoding="UTF-8"?>
<svg version="1.1" viewBox="0 0 48 48" xmlns="http://www.w3.org/2000/svg" xmlns:cc="http://creativecommons.org/ns#" xmlns:dc="http://purl.org/dc/elements/1.1/" xmlns:rdf="http://www.w3.org/1999/02/22-rdf-syntax-ns#" xmlns:xlink="http://www.w3.org/1999/xlink">
<metadata>
<rdf:RDF>
<cc:Work rdf:about="">
<dc:format>image/svg+xml</dc:format>
<dc:type rdf:resource="http://purl.org/dc/dcmitype/StillImage"/>
</cc:Work>
</rdf:RDF>
</metadata>
<defs>
<linearGradient id="linearGradient4071" x1="6" x2="90" y1="47" y2="47" gradientTransform="matrix(.55126 0 0 .55126 -2.4607 -1.9094)" gradientUnits="userSpaceOnUse">
<stop stop-color="#b2babc" offset="0"/>
<stop stop-color="#fff" offset=".25"/>
<stop stop-color="#96a1a4" offset=".5"/>
<stop stop-color="#fbf9f9" offset=".75"/>
<stop stop-color="#b2b9bc" offset="1"/>
</linearGradient>
<linearGradient id="linearGradient4129" x1="1.5" x2="94.5" y1="88.172" y2="88.172" gradientTransform="matrix(.49792 0 0 .49792 .099999 .1)" gradientUnits="userSpaceOnUse">
<stop offset="0"/>
<stop stop-opacity=".58824" offset=".1"/>
<stop stop-opacity=".58824" offset=".9"/>
<stop offset="1"/>
</linearGradient>
<radialGradient id="radialGradient7462" cx="13.948" cy="44.893" r="43.199" gradientTransform="matrix(.48554 0 0 .024493 16.979 40.016)" gradientUnits="userSpaceOnUse" xlink:href="#linearGradient3737"/>
<linearGradient id="linearGradient3737">
<stop stop-color="#fff" offset="0"/>
<stop stop-color="#fff" stop-opacity="0" offset="1"/>
</linearGradient>
<radialGradient id="radialGradient7464" cx="13.948" cy="44.893" r="43.199" gradientTransform="matrix(.44231 0 0 .024493 15.807 -44.996)" gradientUnits="userSpaceOnUse" xlink:href="#linearGradient3737"/>
<linearGradient id="linearGradient4767" x1="2.7714" x2="50.528" y1="-28.642" y2="14.514" gradientUnits="userSpaceOnUse" xlink:href="#linearGradient3737"/>
<clipPath id="clipPath4156-4-1">
<path d="m27.046-55.695-14.214 13.321h0.06127l15.653 21.771 10.231-10.546c-0.2169-1.1522-11.311-23.67-11.732-24.546zm-17.399 16.313-14.888 14.062 21.229 17.515 10.385-10.577zm31.491 12.951-9.7413 9.7136 8.9448 12.458 7.7808-7.555zm-49.84 4.3788-13.754 12.982 26.283 13.846 0.06127-0.0617-0.12253-0.0617 9.8332-10.053-22.301-16.652zm38.015 7.4008-9.8025 9.7753 11.579 9.5594 7.6276-7.4008-8.6691-11.009zm20.187 5.674-7.3825 7.2158 6.1878 8.5418 5.8202-6.1365zm-32.195 6.3215-9.5575 9.4977 13.662 7.185 7.9339-7.6784zm23.312 2.3744-7.1068 6.9383 8.3628 6.9074 5.3608-5.674-0.06127-0.0925-0.0919 0.12335-6.4635-8.2026zm-8.7304 8.5418-7.5051 7.3392 10.354 5.4581c1.3975-1.321 5.6751-6.1229 5.8509-6.3215z" fill="#fff" opacity=".6"/>
</clipPath>
</defs>
<path d="m44.486 0.1h-40.971c-1.8915 0-3.4143 1.5228-3.4143 3.4143v40.971c0 1.8915 1.5228 3.4143 3.4143 3.4143h40.971c1.8915 0 3.4143-1.5228 3.4143-3.4143v-40.971c0-1.8915-1.5228-3.4143-3.4143-3.4143z" opacity=".15"/>
<path d="m44.166 0.47344h-40.331c-1.862 0-3.3609 1.499-3.3609 3.3609v40.331c0 1.862 1.499 3.3609 3.3609 3.3609h40.331c1.862 0 3.3609-1.499 3.3609-3.3609v-40.331c0-1.862-1.499-3.3609-3.3609-3.3609z" opacity=".15"/>
<path d="m43.846 0.84687h-39.691c-1.8324 0-3.3076 1.4752-3.3076 3.3076v39.691c0 1.8324 1.4752 3.3076 3.3076 3.3076h39.691c1.8324 0 3.3076-1.4752 3.3076-3.3076v-39.691c0-1.8324-1.4752-3.3076-3.3076-3.3076z" fill="url(#linearGradient4071)"/>
<path d="m5.6972 3.2803c-1.4223 0-2.5514 1.153-2.5514 2.6055v34.556c0.54633 0.84876 1.4782 1.4167 2.5514 1.4167h37.521c1.0732 0 1.2236 0.01811 1.7699-0.83064v-35.142c0-1.4525-1.1291-2.6055-2.5514-2.6055z" fill="#f2f0f5" opacity=".98"/>
<path d="m8.8893 7.7774c-0.7197 0-1.4394 0.86663-1.4394 1.7367h-0.00288v29.601h34.543v-25.985c0-0.92406-0.7197-1.8551-1.4394-1.8551h-1.4336c-4.2995-0.02784-8.6364-0.01392-12.955-0.01392l-1.4394-3.477z" fill-opacity=".24783"/>
<path d="m6.0105 7.7774v24.363h33.106v-12.182l-1.4394-10.441h-12.955l-1.4394-3.4804h-15.833c-0.7197 0-1.4394 0.87011-1.4394 1.7402z" fill="#163e57"/>
<rect x="7.447" y="9.5142" width="15.833" height="6.9609" fill="#fffdf0"/>
<path d="m40.556 11.38v25.987h-34.545v-24.363h17.273l1.4394-3.4804h14.394c0.7197 0 1.4394 0.92754 1.4394 1.8568z" fill="#006ea6"/>
<path d="m4.9921 2.4549c-1.5518 0-2.8222 1.2645-2.8222 2.8112v34.495c0 1.5468 1.2704 2.8112 2.8222 2.8112h38.236c1.5518 0 2.8222-1.2645 2.8222-2.8112v-34.495c0-1.5468-1.2704-2.8112-2.8222-2.8112zm0 1.1549h38.236c0.94012 0 1.669 0.73696 1.669 1.6564v34.495c0 0.91939-0.72891 1.6564-1.669 1.6564h-38.236c-0.94012 0-1.669-0.73696-1.669-1.6564v-34.495c0-0.91939 0.72891-1.6564 1.669-1.6564z" color="#000000" fill="#1f2224" fill-opacity=".8087" style="text-decoration-line:none;text-indent:0;text-transform:none"/>
<path d="m0.84687 40.851v2.9875c0 1.8324 1.4819 3.3143 3.3143 3.3143h39.678c1.8324 0 3.3143-1.4819 3.3143-3.3143v-2.9875c0 1.8324-1.4819 3.3143-3.3143 3.3143h-39.678c-1.8324 0-3.3143-1.4819-3.3143-3.3143z" fill="url(#linearGradient4129)" opacity=".65818"/>
<rect x="2.7763" y="40.058" width="41.949" height="2.1161" rx="0" ry="2.1161" fill="url(#radialGradient7462)" opacity=".55"/>
<rect transform="rotate(90)" x="2.8684" y="-44.955" width="38.215" height="2.1161" rx="0" ry="2.1161" fill="url(#radialGradient7464)" opacity=".669"/>
<rect transform="matrix(.53239 0 0 .52166 2.2387 19.259)" x="2" y="-30" width="75.966" height="69.024" rx="3.957" ry="3.957" clip-path="url(#clipPath4156-4-1)" fill="url(#linearGradient4767)" opacity=".7"/>
<path d="m36.875 15.327c-3.423 0-6.193 2.8928-6.193 6.4596 0 1.1246 0.2716 2.1686 0.75318 3.088v0.01601l-11.483 11.992v2.5851h2.4753l0.8283-0.86504v-1.72h1.647l0.8283-0.86504h1.6547l0.8206-0.86504v-1.72l0.8283-0.86503h1.6547v-1.7281l3.2207-3.3636h0.0155c0.88031 0.50293 1.882 0.78658 2.9491 0.78658 3.423 0 6.193-2.8928 6.193-6.4677v-0.02426c-0.0155-3.5666-2.7758-6.4353-6.1931-6.4353m1.2347 3.442c0.90343 0 1.6412 0.77049 1.647 1.72 0 0.95959-0.73776 1.7281-1.647 1.7281-0.91884 0-1.6547-0.77049-1.6547-1.7281 0-0.95154 0.73777-1.72 1.6547-1.72" fill="#fff" opacity=".92" stroke="#a1a1a1" stroke-width=".469"/>
</svg>
